X:1
T:Die Meistersinger von Nurnberg
T:Die Meistersinger von Nürnberg Vorspiel.
T:Richard Wagner.
T:H.v.BÜLOW.
C:R.Wagner
%%score { ( 1 4 6 7 ) | ( 2 3 5 8 ) }
L:1/8
Q:1/4=108
M:4/4
K:C
V:1 treble nm="Piano" snm="Pno."
V:4 treble 
V:6 treble 
V:7 treble 
V:2 bass 
V:3 bass 
V:5 bass 
V:8 bass 
V:1
!ff!"^Sehr mässig bewegt, durchweg breit und gewichtig.""^(Moderato molto.)" [CEc]4 [CEG]3 [CEG] | %1
 [CEG-]4 GEFG | [^CFA]2 [DGB]2 [EGc]2 [FGBd]2 | [EGce]2 !^![FAcf]3 [EGce][FGBd][EGc] | %4
 [CDFAd]4 [B,DFA]3 B | [CEGc]4- [CEGc][B,B][Cc][Dd] | [Ee][Dd][Ee][=Ff] [GAceg]2 [Fdf][Ece] | %7
!f! [Bd][Ac][Bd][ce] [df]2 ed | [Ac][GB][Ac][Bd] [ce]2 dc | [FB][Ad][Gc][FB] [EA][Gc][FB][EA] | %10
 [DG][^FB][=FA][Ec] [FB][Ad][Gc][^Fe] | [Ad][G^c]"_rinforzando"[_Bd][Ae] [^Gf][=Gc][Ad][_Be] | %12
"_cresc." [_Bf][_B^c][=Ad][^Ae][Q:1/4=104] [=Bf][_Bc][Q:1/4=100][=Ad][GBe] | %13
!ff![Q:1/4=108] [FAf]4 [CFAc]3 [Cc] | cABc [Dd-]4 | dBcd [Ee-]4 | %16
 ecd[Ee] !arpeggio![EAc^f][^Fd][Ge][Af] | [Gg]2 [Aa]2 [db]2 [cc']2 | %18
 .[gd']2 !>![ee']3 [dd'][cc'][Bb] | [^fa]2 !>![cc']3 [Bb][Aa][Gg] | [^F^f]2 g2 [Aca]2 [Bb]2 | %21
 [cec']2 [d=fd']3 [cc'][Bb][Aa] | ([^G^g]b)[ca][B=g] (^fa)[cg][A^f] | [ce]2 [Ac^f]2 [Bg]2 [ca]2 | %24
[Q:1/4=106] [Bb]2 [^fc']2[Q:1/4=104] d'2[Q:1/4=100] e'2 |[Q:1/4=80] !trill(!T[cda]8[Q:1/4=104] | %26
[Q:1/4=92] [Bg]"_tranquillo""^sehr ruhig."!f! (g'd'=f'- f'c' e'2-) | %27
 ([be']/d'/c'/b/ ag- g/^f/g/^g/ b/a/f/c/) |!p! B!mf! (=gd=f- fc e2- | %29
 [Be]/d/c/B/ AG- G/^F/"_dim."G/^G/ B/A/^F/D/) | z (e'b!<(!d'-!<(! d'a!<)! c'2-!<)! | %31
!>(!!>(! c'/b/!>)!a/!>)!g/ g>a) b (=e"_dim."Bd- | dA c2- c/B/A/G/ G>A) | %33
"^espr." (c B2 A- A2 G)(c- |!p! c B2 A-[Q:1/4=88]"^poco rall." A2 G)(^F | %35
[Q:1/4=84] cBF)c-[Q:1/4=80] cB=F(!>![^Fc-] | %36
"^Tempo"[Q:1/4=108]"_cresc." c/B/).A/.F/ (=e2- e/d/).B/.G/ (a2- | %37
 a/g/).^f/.=f/!f! (=e'/d'/).c'/.b/ !>![aa']2- [aa']/.[gg']/.[ff']/"_e".[ee']/ | %38
!f! .[dd']/.c'/.b/.a/ .g/.^f/.c'/.b/ .a/.g/.f/.=f/ .e/.d/.a/.g/ | %39
 .f/.e/.d/.c/ .B/.A/.f/.e/ .d/.c/.B/.A/ .G.G/.G/ | %40
 !tenuto![CEG]2 !tenuto![EGc]2 !tenuto![EAce]2 !tenuto![GBdg]2 | %41
 !tenuto![Gceg]2 !tenuto![Acfa]2 !tenuto![Gceg]2 .[CEG].[CEG]/.[CEG]/ | %42
 [CEG]2 [EGc]2 [EAce]2 [GBdg]2 | [Gceg]2 [Acfa]2 [Gceg]2 .[CEG].[CEG]/.[CEG]/ | %44
 [CEG]2 [EGc]2 [EAce]2 [GBdg]2 | [Acfa]2 [Bd^gb]2 ([ceac']2 .[eae']).[dd'] | %46
 ([cc']2 [Bb]).[cc'] .[dd'].[cc'].[Bb].[Aa] | ([Aa][Gg])[ee'][dd'] [cc'][Bb][Aa][Gg] | %48
 [Gceg] z !tenuto![EGc]2 !tenuto![EAce]2 !tenuto![GBdg]2 | %49
 !tenuto![Gceg]2 !tenuto![Acfa]2 !tenuto![Gceg]2 .[CEG].[CEG]/.[CEG]/ | %50
 [CEG]2 [EGc]2 [EAce]2 [GBdg]2 | [GBeg]2 [A^d^fa]2 [GBeg]2 .[CEG].[CEG]/.[CEG]/ | %52
 [CEG]2 [EGc]2 [EAce]2 [GBeg]2 |!f! a2 b2 c'2 !trill(!Td'3/2 (2:1:2(c'/d'/) | %54
 e'2 (5:4:5(f'/=g'/f'/e'/f'/) (g'2 ^f').=g' | ([ad'a'][gg'])[^fc'^f'][ee'] [dd']3 [Bb] | %56
 [dd'][cc'] a2 g2 !trill(!T^f3/2 (2:1:2e/!trill)!f/ | ([Gg]4 [B,D]2)!ff! [Gg]2 | (!>!g4- gef[Gg]) | %59
 [Aa]6 [Bb][=c=c'] | ([cc']3 [Bb]) ([Aa][Gg][Aa][Bb]) | %61
 ([cc'][Bb][cc'][dd']) ([ee'][dd'][ee'][ff']) | ([c'g']2 z2 gefg) | (a6 [Bb][=c=c']) | %64
 ([cfac']3 [Bb]) ([Aa][Gg][Aa][Bb]) | ([cc'][Bb][cc'][dd']) ([ee'][dd'][ee'][^f^f']) | %66
 .g'2 (!>!d2- dBcd) | (e6 [^F^f][=Gg]) | ([Gcg]3 [^F^f]) ([Ee][Dd][Ee][Ff]) | %69
 ([Gg][^F^f][Aa][Gg] [Ff][Ee][Dd][^C^c] | .[DAd]2)"_espr." (!>![Dd]3 B=cd) | %71
 ([Ee]4- [Ee][Cc][Dd][Ee]) | ([^F^f]4- [Ff][Dd][Ee][Ff]) |!ff! ([Gg]4- [Gg][Ee][^F^f][Gg]) | %74
 ([Aa]4- [Aa][^F^f][Gg][Aa]) | ([cegc']3 [Bb] [Aa][Gg][Aa][Bb]) | %76
 ([dfad']3 [cc'] [Bb][Aa][Bb][cc']) |!f! ([e^fae']3 [dd']) ([cc'][=B=b][cc'][dd']) | %78
[Q:1/4=104] ([f^g=bf']3 [ee'])[Q:1/4=100] ([dd'][ee'])[Q:1/4=96].[ff'].[^f^f'] | %79
!ff![Q:1/4=104]!8va(! [gc'g']4- [gc'g'][ee'][ff'][gg'] | [a-^c'a'-]4 [aa']2 [bb'][=c'c''] | %81
 ([c'f'a'c'']3 [bb']) ([aa'][gg'][aa'][bb']) | ([be'b']3 [aa']) ([gg'][ff'][gg'][aa']) | %83
 ([ad'f'a']3 [gg']) ([ff'][ee']).[dd'].[cc']!8va)! | %84
 ([Bb][^G^g][Aa][Bb])"^etwas zirückhaltend""^(poco ritenuto)" ([=da=d'][cc'])[Q:1/4=100].[Beb].[A^fa] | %85
 ([=G=g]3 e)[Q:1/4=98] (gf[E^Ge][DAd]) |[Q:1/4=96]"^a tempo" (c2!<(! B)A"^ten." B4!<)! | %87
 !trill(!TB8 | %88
"^molto espr.""^Bewegt, doch immer noch etwas breit."[Q:1/4=88]!f! z c2 c2 (c-c/d/4c/4B/c/)[Q:1/4=60] | %89
"_ten."[Q:1/4=88] (!>!e2"^(Animato, ma sempre un poco largamente)" dc-!p!!>(! cB- (3BAG-)!>)! | %90
!f! z c2 c2 (c-c/d/4c/4B/c/) |!ff! (!>!_e2"_dim." d)c-!>(! c!>!_c- (3c_B_A!>)! | %92
!p! z"_cresc." _e2 e2 e-(e/f/4e/4d/e/)[Q:1/4=60] |[Q:1/4=88] (!>!g2 f!>(!_e- ed- (3dc!>)!_B-) | %94
!<(! z _e2 e2 e-!<)!"_cresc."(e/f/4e/4[Q:1/4=80]d/e/)[Q:1/4=50] | %95
!ff!"^poco rall."[Q:1/4=86] (!>![^c^f]2[Q:1/4=84]"_dim." ^e=e!p![Q:1/4=82] ^d!>(!c-[Q:1/4=80] (3c=B[Q:1/4=60]^A)!>)! || %96
[K:E][Q:1/4=72]!p!"^Etwas mässiger noch als das Hauptzeitmaass.(Moderato TempoⅠ.)""^sehr zart und ausdrucksvoll" (B2 EG!<(! B,3 C/D/ | %97
"^(dolcissimo e espressivo)" E!<)!G!p! B/!>(!^A/=A/C/ E2 D/E/F/!>)!G/) | %98
!p! (C2- C/D/E/F/) (B,2- B,/^B,/^C/D/) |!<(! (F>E- E/^E/!<)!F/G/!>(! B2!>)! A) z | %100
 z !>!c-!>(! (3(cAG!>)! [^B,F]3 E) | z !>!c-!>(! (3(cAG!>)! F3 =E) | %102
!p!!<(! (A^E (3FG!<)!A ^c!>(!^A (3BG!>)![I:staff +1]=E) | %103
!p!!<(![I:staff -1] (=a^e (3f!<)!ga)!>(! (c'^a (3b!>)!g=e) | %104
"^Leidenschaftlich."!p!"_cresc." (A^E (3F).G.A"^(più appassionato)" (^cG A).G/.A/ | %105
 ^dc- (6:4:6c/B/^A/B/c/B/ (f>e- e/d/e/4d/4c/4d/4) |!f! (!>!f"_dim." e2)!>(! c2 (A- (3ABc-)!>)! | %107
!p! (c"_dolce"^A (3B^Bc cG (3!arpeggio!=B=AF) ||[K:A]!p!"_cresc." (=d^A (3B).c.d (^fc d).c/.d/ | %109
 (!>![^G^g][Ff-] (6:4:6f/e/^d/e/f/e/) (b>a- a/g/)(a/4g/4f/4g/4) | %110
!f! (!>!b a2) f2!>(! d- (3de!>)!f |!p! ([^df'] [ee']2 c'2 a- (3abc') | %112
!f! (b a2)[Q:1/4=68] f2 (d-[Q:1/4=64] (3def)[Q:1/4=60] |[Q:1/4=72]!p! z2 (3(c'd'e') [egc'] d'3 | %114
!p! (3^d.e(c'- (3c'=d'e' (3c'.d')!<(!(=d- (3de!<)!f) | %115
!mp!"_cresc." (fe- (3ef).=g[Q:1/4=74] (^ef- (3fg).a | %116
[Q:1/4=76] (f=g- (3[Gg])[Aa].[Bb][Q:1/4=78] ([^G^g][Aa]- (3[Aa][Bb])([=c=c']- || %117
[K:C]!mf![Q:1/4=80]"_cresc." [cc']!<(![^G^g] (3[Aa]).[Bb].[cc'] ([ee'][^c^c'] (3[ee'][dd'])([=c=c']-!<)! | %118
!mf![Q:1/4=84] [cc']!<(![^G^g] (3[Aa]).[Bb].[cc'] ([ee'][^c^c'] (3[ee'][dd'])([=c=c']-!<)! | %119
[Q:1/4=88] [cc'][^G^g] (3[Aa]).[Bb]([cc']- [cc'][Gg] (3[Aa]).[Bb][cc']- | %120
[Q:1/4=92] (3!>![cc'](^cd (3ef)(a[Q:1/4=96] (3b=c').c' (c'/d'/4c'/4b/c'/) || %121
[K:Eb][Q:1/4=100]"^Im Hauptzeitmaass." .[ege']"^sehr kurz.""_(molto staccato)"!p! .B/.B/.B"^(Tempo Ⅰ.)".B B2- B/.G/.A/.B/ | %122
 .[Ec].[Ad].[Ge].[cf] .g!>!a- a/g/f/e/ | !tenuto!f2 c>d !tenuto!e2- e/.d/.e/.f/ | %124
 .g/.f/.g/.a/ !tenuto!b.a/.g/!p! [df] z"_cresc." (3F.G.A | (c/G/)A- (3A.B.=B (d/B/)c- (3c.d.e | %126
 (g/=e/)f-!f! (3fga!p! a2 _e>e | .e/.c/.=d/.e/ !tenuto![=Af-]2 f/.d/.e/.f/ !tenuto![=Bg-]2 | %128
 .g/.e/.f/.g/ .=a/.f/.g/.a/ .b.c'.d'.e' | %129
 .f' !>![=ag']-[ag']/.[ff']/.[ee']/.[dd']/ .[cc'] !>![^fe']-[fe']/.[dd']/.[cc']/.[Bb]/ | %130
 .=a.b.c'.d' .e' !>![_af']-.f'/.e'/.d'/.c'/ |!p!"_cresc." .=b/.d'/.c'/._b/ .=a/.c'/.b/.a/ | %132
 .g.=a.b.[ec'] | .d'.[=ae'].f'.g' !>!Tc'3/2 (2:1:2(=b/c'/ (6:4:6[c'=a']/)g'/ f'/e'/d'/c'/ | %134
!p! B/"_cresc."^F/(G- (3G=AB =d/).A/(B- (3Bc^c | =e/).^c/(d- (3de=f =a/).^f/(g- (3ga_b- | %136
 b/).=a/(!>!b- b/.a/)(!>!b- b/.a/)(!>!b- b/_c'/4b/4a/b/)[Q:1/4=80] | %137
[Q:1/4=100]!f!!>(! (!>!_e'2 _d'"_dim."=c'[Q:1/4=96] (3_c'!>)!bf)[Q:1/4=88] (3(a_g3/2[Q:1/4=80]f/)[Q:1/4=40] | %138
[Q:1/4=100]!p! b2- b/.g/.a/.b/ c'2-!<(! c'/.a/.b/.c'/!<)! | %139
!>(! !>![fae']>.d'!>)!!p! .[dc']/.b/.c'/.d'/ .[ee']/.d'/.e'/.f'/ .[gg']/.f/.g/.=a/ | %140
!p! b/ x3/2"_cresc." f/.d/.e/.f/ g2-!<(! g/.e/.f/.g/!<)! | %141
!>(! !>![ceb]>.=a!>)!!p! .g/.f/.[eg]/.a/ .[db]/.a/.b/.=b/ .c'/._b/.c'/.d'/ | %142
!p! .[ee'] z"_cresc." .[Gc].B ._A/.G/.=E/.F/!<(! .d.c!<)! | %143
!sfz! .[_cf]/!>(!.B/.F/.G/!>)! .A.a (g3/2=a/4g/4 [Bf])[=ce] | %144
!p! .d/"_cresc.".c/.=A/.B/ .g.f .e/.d/.=B/.c/ .=a.g | %145
 ._g/.f/.c/.d/ .[ce].[Ec] .=g/.^f/.d/.e/ .[d=f].[Fd] | %146
 .=a/.g/.e/.f/ .[c_g].e .b/.=a/.e/.f/ .[=Ag].e | [cb]/=a/e/f/ .[c_g].e [cb]/a/e/f/ .[cg].e | %148
 [dc']/=b/f/=g/ .[=B_a].f [dc']/b/f/g/ .[Ba].f |!f! x2 !>![dc']2 !>![dc']2 !>![dc']2 | %150
[Q:1/4=98]!f! c'"_(molto espressivo)""^sehr ausdrucksvoll"!<(! !>![ac']2 !>![ac']2 !>!c'-[Q:1/4=94](c'/d'/4c'/4.=b/).c'/[Q:1/4=60]!<)![Q:1/4=96] || %151
[K:C]!ff![Q:1/4=92] (!^!=a'2 g')(^f' e')(_e'd')(c' |"_marcatissimo" b)(ac')(b d')(c' (3e').d'.^c' | %153
 =c'be'd' c'ba^g | bad'c' b(^g (3a).b.c' | (!>!c'b).f.g (!>!^ga).e.f | (!>!c'b).f.=g (!>!^ga).d.e | %157
"_dim." (f^fg)(^c ede=f) |!p!"^molto espress."[Q:1/4=96] ([Geg]4 [Cc]2 [Ee]2) | (G6 A[DFB]) | %160
 (!tenuto![Cc]2 [EGe]2 [Gg]>[^F^f][=F=f]A |!>(! c4!>)! [B,B])([Cc][DBd][Ece] | %162
!p! [A,FA-]4 A!p![B,B][CFAc][DFGd]) | ([G,EG-]4 G!p![^G,F^G][A,EA]!<(![B,F=GB] | %164
 [Dd]3 [C_Bc]- [CBc])([^C^c][DAd][Ece]!<)! |!mf! [Ad-g]4 [df]2) z2 | %166
"^Allmäsig immer stärker und im Vortrage bewegter."[Q:1/4=100]!pp! z2!mf! ([Aa]4 [Ff][Ee]) | %167
 ([Dd]6!mf! [Dd][Cc] |!mf! [B,B]2 [EGe][DBd] c2 B2) |!mf! ([CAc]2 [^FAc^f][Ee] [DAd]2 [CDc]2) | %170
"_cresc." !arpeggio![B,DB]/A/^F/G/- .[Ge].[Fd] [^Dc]/B/^G/A/- .[A^f].[=Ge] | %171
 (_e/d/)A/B/ d/c/G/A/ c/B/^F/G/ B/A/!<(!^D/E/ | (g/!<)!^f/)c/d/ ^d/e/B/c/- g/f/c/=d/ ^d/e/B/c/ | %173
 (g/!<(!f/)^c/d/ e/f/c/d/ e/f/d/!<)!e/!f! g/^f/=f/d/ | %174
[Q:1/4=104] z"^sehr feurig""^(con fuoco)" (!>![Gceg]2 [Ee]/c/ ([Acea-]4) | ag).f.e (g2 f2-) | %176
 f/(^c/d/e/ f/g/^g/a/) ([dfd']3 [Gdf]) | (f2 ef) !>![cg-]2!<(! g/.g/.a/!<)!.b/ | %178
!f! .[cec'].[ceg]/.[ceg]/.[ceg].[ceg] !>![ceg-]4 | .g/.e/.f/.g/ a2- .a/.d/.f/.a/ !>!c'>b | %180
 .a/.g/.a/.b/ .d'/.c'/.d'/.e'/ [fd'f'] z [FA]>[FA] | %181
 !>!A2- A/.G/.A/.B/!<(! .[Gc].[Gd].[Ge]!<)!.[cf] | [ceg] !>![Gg]2 .[Ee]/.c/ (!>![Aa-]4 | %183
"_ten." ag).f.e (!>![dg]2 f2) | z/ (^c/d/e/ f/g/^g/a/)!<(! !>![fd']2 !>!A2-!<)! | %185
 (A/!f!^c/d/e/ f/g/^g/a/) !>![d'f']2!<(! !>!f2-!<)! | %186
 (f/e/f/g/ ^g/a/b/=c'/) !>![af'a']2-!<(! [af'a']/([af'][fd']/)!<)! | %187
 (!>!c'>b) .a/.g/.a/.b/!<(! (!arpeggio!!>![Bfad']/c'/).b/!<)!.a/ .g.G/.G/ | %188
!ff! !>!G2 !>!c2 !>!e2 !>!g2 | !>!g2 !>!a2 !>!g2 .[EG].[EG]/.[EG]/ | %190
"^simile" !>!G2 !>!c2 !>!e2 !>![=dg]2 | !>!g2 !>!a2 !>!g2 .[EG].[EG]/.[EG]/ | %192
 !>![EG]2 !>![Gc]2 !>![ce]2 !>![=dg]2 | !>![=fa]2 !>![^gb]2 | [=ac'] (d'/4c'/4b/4c'/4 .e').d' | %195
 (!>![cdc']2 [Bb]).[cc'] ([dd'][cc']).[Bb].[Aa] | %196
 ([Aa][Gg])[Q:1/4=100]([ee'][dd'])[Q:1/4=96] ([cc'][Bb])[Q:1/4=92].[Adfa].[Gg] | %197
!f![Q:1/4=96] !>![Gceg] z !^![EGc]2 !^![EAce]2 !^![GBdg]2 | %198
 !^![Gceg]2 !^![Acfa]2 !^![Gceg]2 .[CEG].[EG]/.[EG]/ | !^![EG]2 !^![Gc]2 !^![Ace]2 !^![GBdg]2 | %200
 !^![GBeg]2 !^![AB^da]2 !^![GBeg]2 .[EG].G/.G/ | !^!G2 !^![CEc]2 !^![EAce]2 !^![GBeg]2 | %202
 !^![Ac^fa]2 !^![Bd=fb]2 !^![ceac']2 !^![dabd']2 | %203
 !^![e^gbe']2[Q:1/4=92] !^![fad'f']2[Q:1/4=88]!<(! !^![=g_be'=g']2[Q:1/4=84] .[fd'f'].[ge'g']!<)! | %204
!ff![Q:1/4=96] (!^![a^c'f'a']3 e) [Aa]2 .[Bdb].[=cea=c'] | ([cc']3 [Bb]) ([Bd=gb][Aa][Bb][cc']) | %206
 [cc']3 [Bb][Q:1/4=94] (!>!d'c')[Q:1/4=92]!arpeggio!.[^Gdb].[Aa] | %207
[Q:1/4=90] ([Gcg]3 [Gce])[Q:1/4=86] ([^G=g][Af])[Q:1/4=84] !tenuto![Fd]2[Q:1/4=88] | %208
 (!tenuto!c2 BA [=DB]/)[DF]/4B/4[DF]/4B/4[DF]/4B/4 [^CE]/4B/4[CE]/4B/4[DF]/4B/4[DF]/4B/4 | %209
 !trill(!!>!Td7/2 (2:1:2^c/d/ !trill(!!>!Tf7/2 (2:1:2e/f/ | %210
 !trill(!!>!Ta7/2 (2:1:2^g/a/ !trill(!!>!Tc'7/2 (2:1:2b/c'/ | %211
[Q:1/4=80]!8va(!!<(! !trill(!!>!Td'3/2 (2:1:2^c'/d'/[Q:1/4=76] !trill(!!>!Tf'3/2 (2:1:2e'/f'/[Q:1/4=72] !trill(!!>!Ta'3/2 (2:1:2^g'/a'/[Q:1/4=60] !trill(!!>!Tb'3/2 (2:1:2a'/b'/!<)! | %212
!fff![Q:1/4=100] !^![c'e'g'c'']4!8va)! [Gceg]3 [Gceg] | [G-ceg-]4 [Gg][Ee][Ff][Gg] | %214
 !tenuto![A^cfa]2 !tenuto![Bdgb]2 !tenuto![=cegc']2 !tenuto![dfbd']2 | %215
 .[egc'e']2!ff![Q:1/4=104] (!>![af']/c'/a/f/ [ca]/f/c/A/ c/f/a/c'/ | %216
 [af']/c'/a/f/) (!>![ca]/f/c/A/ [Fc]/A/F/C/ F/A/c/f/ | %217
 [ca]/f/c/A/) (!>![fc']/a/f/c/ [Af]/c/A/F/ A/c/f/a/) | %218
 (!arpeggio!!>![Afc']/a/f/c/ c'/a/f/c/) (!>![ad']/c'/!<(!a/d/ d'/c'/a/d/)!<)! | %219
!ff![Q:1/4=108] (!>![ege']/d'/b/c'/ .[aa']).[gg'] .[ee'].[cc'].[cg].[ce] | %220
!<(! (!>![cec']/a/^f/!<)!g/ .[=f=f']).[ee'] .[cc'].[Gg].[Ge].[Gc] | %221
!<(! (!>![Gg]/f/^d/!<)!e/ .[=d=d']).[cc'] .[Gg].[Ee].[Ec].[EG] | %222
 (!>![Ee]/d/B/c/ .[Aa]).[Gg][Q:1/4=104] .[Ee]!<(!.[Cc][Q:1/4=100].[CG].[CE]!<)! | %223
[Q:1/4=88] .C2 z2[Q:1/4=80] .[cegc']2 z2 | .[E,G,C]2 z2 z4 |] %225
V:2
!ped! [C,,G,,]/4"^sehr kräftig und gehalten"C,/4C,,/4C,/4C,,/4C,/4C,,/4C,/4 C,, z .[E,G,]2!ped-up! !>![B,,,B,,]2- | %1
"^(vigoroso e molto tenuto)" [B,,,B,,]2 [A,,,A,,]2 !>![A,,A,]4 | %2
 [G,,G,]2 [F,,F,]2 [E,,E,]2 [D,,D,]2 | %3
 [C,,C,]3!ped! [A,,,A,,] [B,,,B,,]!ped-up![C,,C,][D,,D,][E,,E,] | %4
!ped! [F,,C,]/4F,/4F,,/4F,/4F,,/4F,/4F,,/4F,/4 F,, z!ped-up! [D,,B,,D,]4 | %5
 [E,,E,][F,,F,][G,,G,][^G,,^G,] [A,,A,]4- | [A,,A,]2 [=G,,=G,]2 [F,,F,][D,,D,][E,,E,][F,,F,] | %7
!ped! !^!G,8!ped-up! |!ped! !^!G,8!ped-up!!ped! | !^!G,8!ped-up!!ped! | !^!G,8!ped-up! | %11
!ped! !^!G,8!ped-up!!ped! | !^!G,4!ped-up!!ped! !^!G,4!ped-up! | %13
!ped! [F,,A,,C,]/4F,/4F,,/4F,/4F,,/4F,/4F,,/4F,/4 F,, z [F,A,]2!ped-up! [E,,E,]2!ped! | %14
 D,4-!ped!!ped-up! [D,,D,][B,,,B,,][C,,C,][D,,D,]!ped-up!!ped! | %15
 E,4-!ped-up!!ped! [E,,E,][C,,C,][D,,D,][E,,E,] | %16
!ped! [^F,,^F,]2 [E,,E,]2!ped! [D,,D,]2 [C,A,C]2!ped-up! | %17
!ped! [B,,D,B,]7/4!ped! x/8!ped-up!x/8 !arpeggio![A,,D,C]7/4!ped-up!!ped! x/8x/8 !arpeggio![G,,D,B,]2!ped-up!!ped! [A,,A,]2 | %18
!ped! x2!ped-up!!ped! !>!^F,4-!ped! F,G,!ped-up! | %19
!ped! E, x!ped-up!!ped! !>!D,4-!ped-up!!ped! D,E,!ped-up! | %20
!ped! C,2!ped-up!!ped! ^C,D,!ped-up!!ped! ^F,2!ped-up!!ped! G,2!ped-up! | %21
!ped! [A,,A,][^F,,^F,]!ped-up!!ped![G,,G,][A,,A,]!ped-up!!ped! B,2 ^G,B,!ped-up! | %22
!ped! D z!ped-up!!ped! [C,,C,]2!ped-up!!ped! [^C,,^C,]2!ped-up!!ped! [D,,D,][^D,,^D,]!ped-up! | %23
!ped! [E,,E,][=C,,=C,]!ped-up!!ped![D,,D,][^D,,^D,]!ped-up!!ped! [E,,E,][=D,,=D,]!ped-up!!ped![E,,E,][^F,,^F,]!ped-up! | %24
!ped! [G,,G,][^F,,^F,]!ped-up!!ped![G,,G,][A,,A,]!ped-up!!ped! [B,,B,][A,,A,]!ped-up!!ped![B,,B,][C,C]!ped-up! | %25
!ped! !^![D,D]8!ped-up!!ped! |[K:treble]"_ten." x2 ([B,DG]2 ^G3 A!ped-up!!ped! | %27
{/=G,} !stemless!F2 cB!ped-up!!ped! A=G ^F2)!ped-up!!ped! | %28
[K:bass]"^ten."{/G,,} x2 ([B,D]2!ped-up!!ped! [C=E]4)!ped-up!!ped! | F,2 CB, C3!ped-up! z!ped! | %30
"_dim."{/G,,} !stemless!G,2 ([B,G]2 [C^F]4!ped-up! | %31
!ped! [D=F]2 [C=E][_E^F] [DG])!ped-up!!ped! z G,2-!ped-up! |!ped! D3 _E A,B,C[^F,A,]!ped-up! | %33
"^dolce"!ped! ([G,,=F,]>G, A,/B,/C/D/) E2- E/^D/[A,E]/_E/!ped-up! | %34
!ped! ([G,,=F,]>G, A,/B,/C/D/) E2- E/^D/E/_E/!ped-up!!ped! | %35
"^ten." (G,2 A,/B,/C/D/ _E2 DC!ped-up! | %36
!ped! G,2)!ped-up!!ped! z ([G,-^C=E] [G,DF]2)!ped-up!!ped! z ([G,-_E^F] | %37
 [G,D=F]2)!ped-up!!ped! z2!ped-up!!ped! !arpeggio![G,,D,F,B,] z!ped-up! z2 | z8 | %39
 z4 z2!f! .[C,E,G,].[C,E,G,]/.[C,E,G,]/ | %40
"^(ben tenuto)""^sehr gehalten"!ped! !tenuto![C,E,G,]2!ped-up!!ped! !tenuto![E,G,C]2!ped-up!!ped! !tenuto![A,C]2!ped-up!!ped! !tenuto![G,B,D]2!ped-up! | %41
!ped! [E,G,CE]2!ped-up!!f!!<(!!ped! (C,,/4"^brillante"C,/4D,/4E,/4F,/4G,/4A,/4B,/4!<)!!ped-up! C) z .[C,E,G,].[C,E,G,]/.[C,E,G,]/ | %42
!ped! [C,E,G,]2!ped-up!!ped! [E,G,C]2!ped-up!!ped! [A,C]2!ped-up!!ped! [G,B,D]2!ped-up! | %43
!ped! [E,G,CE]2!ped-up!!f!!<(!!ped! (C,,/4C,/4D,/4E,/4F,/4G,/4A,/4B,/4!<)!!ped-up! .[E,C]) z .[C,E,G,].[C,E,G,]/.[C,E,G,]/ | %44
!ped! [C,E,G,]2!ped-up!!ped! [E,G,C]2!ped-up!!ped! [A,C]2!ped-up!!ped! (G,,/4A,,/4B,,/4C,/4D,/4E,/4F,/4G,/4)!ped-up! | %45
!ped! F,,2!ped-up!!ped! [E,,B,,D,E,]2!ped-up!!ped! [A,,C,E,A,]2!ped-up!!ped! [F,,A,,D,A,]2!ped-up! | %46
!ped! [G,,D,F,G,]7/2!ped-up!!ped! (3x/4x/4x/4 !arpeggio![A,,D,^F,C]4!ped-up! | %47
!ped! [B,,D,B,]7/2!ped-up!!ped! x/8x/8x/8x/8 !arpeggio![G,,D,F,G,D]2!ped-up!!f! .G,.G,/.G,/ | %48
!ped! !^![C,E,G,]2!ped-up!!ped! [E,G,C]2!ped-up!!ped! [A,C]2!ped-up!!ped! [G,B,D]2!ped-up! | %49
!ped! [E,G,CE]2!ped-up!!ped! (C,,/4!<(!C,/4D,/4E,/4F,/4G,/4A,/4B,/4!ped-up!!<)! .[E,C]) z .[C,E,G,].[C,E,G,]/.[C,E,G,]/ | %50
!ped! [C,E,G,]2!ped-up!!ped! [E,G,C]2!ped-up!!ped! [A,C]2!ped-up!!ped! [G,B,D]2!ped-up! | %51
!ped! [E,G,B,E]2!ped-up!!ped! (!>!B,,,/4B,,/4^D,/4E,/4^F,/4G,/4A,/4B,/4!ped-up! .E,) z .[C,E,G,].[C,E,G,]/.[C,E,G,]/ | %52
!ped! [C,E,G,]2!ped-up!!ped! [E,G,C]2!ped-up!!ped! [A,C]2!ped-up!!ped! !>!E,,/4!<(!(E,/4^F,/4G,/4!<)!!>(!A,/4G,/4F,/4E,/4)!ped-up!!>)! | %53
!ped! [=D,,=D,]2!ped-up!!ped! [G,,D,=F,G,]2!ped-up!!ped! [A,,C,E,A,]2!ped-up!!ped! [G,,G,][F,,F,]!ped-up! | %54
!ped! [E,,E,]2!ped-up!!ped! [D,,D,]2!ped-up!!ped! [^C,,^C,]7/4!ped-up!!ped! x/8x/8 !arpeggio![=C,A,D]7/4!ped-up!!ped! x/8x/8 | %55
 !arpeggio![B,,D]7/4!ped-up!!ped! x/8x/8 !arpeggio![A,,C]2!ped-up!!ped! [B,,D,G,B,]7/4!ped-up!!ped! x/8x/8 !arpeggio![E,,B,,G,]2!ped-up! | %56
!ped! [A,,,A,,]2!ped-up!!ped! [B,,,B,,][C,,C,]!ped-up!!ped! ([D,,D,]2!ped-up!!ped! .[A,C])[D,,D,]!ped-up! | %57
!ped! [G,,G,]4 [=F,,=F,]4!ped-up! | %58
!ped![I:staff -1] G[I:staff +1] z !>!G4!ped-up!!ped! (!>!F2-!ped-up! | %59
!ped! F3 E) (E^CDE)!ped!!ped-up! | %60
 !arpeggio![D,A,F]4!ped-up!!ped! !arpeggio![G,,D,F,B,]4!ped-up!!ped! | %61
 !arpeggio!!tenuto![E,G,CG]4!ped-up!!ped! !>![C,,C,]3 [D,,D,] | %62
!ped! [E,,C,E,]2 !>!G4 (!>!F2-!ped-up! |!ped! F3 E) (!>!E^CDE)!ped!!ped-up! | F4!ped! (B,3 D) | %65
!<(!!ped! (G,2!<)! G2)!ped-up!!ped! ([G,E]2 C)A,!ped-up!!ped! | %66
"^espressivo cantabile" (!>!D6 C2-)!ped-up! |!ped! C3 B, B,^G,!ped-up!A,B,!ped! | %68
 !arpeggio!!tenuto![A,,E,C]3!ped-up!!ped! (D,,/D,/) ([A,C]2 D,3/2)!ped-up!!ped! (3x/4x/4x/4 | %69
 !arpeggio!!tenuto![B,,D,G,D]7/2 x/4x/4 (!arpeggio![G,,D,B,]3 G,)!ped-up!!ped! | %70
 A,4!ped-up!!ped! x2 CB,!ped-up! |!ped! x4!ped-up!!ped! (A,2 ^F,E,!ped-up! | %72
!ped! D,3 ^C,)!ped-up!!ped! (G,2 E,D,)!ped-up! |!ped! x4!ped-up!!ped! (A,2 ^F,E,)!ped-up! | %74
!ped! ^F,4!ped-up!!ped! (B,2 D2)!ped-up! | %75
!ped! x7/4 x/8x/8 !arpeggio![E,G,C]2!ped-up!!ped! x7/4 x/8x/8 !arpeggio![^F,A,E]2!ped-up! | %76
!ped! x7/4 x/8x/8 !arpeggio!.[=F,A,D]2!ped-up!!ped! x7/4 x/8x/8 !arpeggio!.[A,B,F]2!ped-up! | %77
!ped! x7/4 x/8x/8 !arpeggio!.[^F,A,E]2!ped-up!!ped! x7/4 x/8x/8 !arpeggio!.[_B,CG]2!ped-up! | %78
!ped! x7/4 x/8x/8 !arpeggio!.[^G,B,=F]2!ped-up!!ped!{/F,,} !stemless!F, x7/8 x/8 !arpeggio!.[B,=G]2!ped-up! | %79
!ped! [E,,G,,C,E,]3/2 (3x/4x/4x/4 !arpeggio![G,CEG]2!ped-up!!ped! !^![A,,A,-]3/2 (3x/4x/4x/4 !arpeggio![A,CFA]2!ped-up! | %80
!ped! !^![G,,G,]3/2 (3x/4x/4x/4 !arpeggio![A,^CEA]2!ped-up!!ped! !^![F,,F,]3/2 (3x/4x/4x/4 !arpeggio![A,DFA]2!ped-up! | %81
!ped! !^![D,,D,]3/2 (3x/4x/4x/4 !arpeggio![A,DFA]2!ped-up!!ped! !^![G,,G,]2 [B,G]2!ped-up! | %82
!ped! !^![C,,C,]3/2 (3x/4x/4x/4 !arpeggio![G,B,EG]2!ped-up!!ped! !^![F,,F,]2 [A,^C]2!ped-up! | %83
!ped! !^![B,,,B,,]3/2 (3x/4x/4x/4 !arpeggio![F,A,DF]2!ped-up!!ped! !^![E,,E,]3/2 (3x/4x/4x/4 !arpeggio![^G,B,DE]2!ped-up! | %84
!ped! !^![F,,F,-]3/2 (3x/4x/4x/4 !arpeggio![F,A,CE]3/2!ped-up!!ped! (3x/4x/4x/4"^marcatissimo" (!arpeggio!!>![^F,,C,^D,A,]2!ped-up! [=G,,B,,E,=G,])[=A,,C,A,]!ped! | %85
 !arpeggio![=F,=D][E,-C]B,!ped-up!_B, A,2 [E,,E,][F,,F,] | %86
"^espr."!ped! [G,,G,] G,,,/4G,,/4G,,,/4G,,/4G,,,/4G,,/4G,,,/4G,,/4G,,,/4G,,/4G,,,/4G,,/4 !///-!G,,,2 G,,2!ped-up! | %87
!ped! [G,,,G,,]2 (!>![F,A,]2!ped-up!!ped! [E,G,]2 [D,F,]2)!ped-up!!ped! | %88
{/A,,,} !stemless!A,,2 (^F,2 =F,2 E,F,)!ped!!ped-up! | %89
 !arpeggio![D,F,A,]>"^dim.".E, .F,/.G,/!p!.^G,/!ped-up!.A,/!ped! (D2 CB,)!ped-up!!ped! | %90
{/A,,,} !stemless!A,,2 ([_E,_G,]2 [D,F,]2 [E,G,]=G,) | %91
!ped! [_B,,F,_A,]B,,/C,/!ped-up!!ped! D,/_E,/(3(F,/G,/A,/)!ped-up!!ped! (=A,2 _A,2)!ped-up!!ped!!ped-up! | %92
{/C,,} !stemless!C,2 (=A,2 _A,2 G,A,)!ped-up!!ped! | %93
 !arpeggio![F,_A,C]>"^dim.".G, .A,/._B,/.=B,/!ped-up!.C/!ped! F2 _ED!ped-up!!ped! | %94
{/C,,} !stemless!C,2 ([^F,=A,]2 [=F,_A,]2) ([^F,=A,]!ped-up!_B,)!ped! | %95
 (([^C,=E,^A,]4!pp! [^F,,E,]4)) || %96
[K:E]"_una corda"!ped! (3B,,E,G,- G,/(^B,,/C,/D,/!ped-up!!ped! E,D,C,)!ped-up!(F, | %97
!ped! E,>D, =D,C,!ped-up!!ped! F,) (^B,,2 C,!ped-up! | %98
!ped! ^D,^E,F,)(D,!ped-up!!ped! =E,B,,G,)(E,-!ped-up! | %99
!ped! [^B,,E,]C,!ped-up!!ped!=D,)!ped-up!C,-!ped!!<(! (C,^E, (3F,A,^B,)!<)! | %100
!>(!!ped![I:staff -1] (C[I:staff +1]A,F,!>)!=E,)!ped-up!!ped! (^D,!<(!^E, (3F,A,^B,)!ped-up!!<)! | %101
!>(!!ped![I:staff -1] (C[I:staff +1]A,F,!>)!=E,)!ped-up!!ped! (D,!<(!E, (3^E,F,A,)!ped-up!!<)! | %102
!ped! (3(C,F,A, C!ped-up![I:staff -1]=C)!ped![I:staff +1] (3(B,,D,E, (3G,B,!ped-up!E)!ped! | %103
[K:treble] (3(CFA c[I:staff -1]=c)!ped![I:staff +1] (3(B,DE G) z | %104
[K:bass]!ped! [F,,F,]2 [A,,A,]7/4!ped-up!!ped! x/8x/8 !arpeggio![G,,^E,B,]7/4 x/4 ([F,A,]2!ped-up! | %105
!ped! [E,^A,C]2)!ped-up!!ped! !^![D,B,D]2!ped-up!!ped! !^![C,=G,^A,]2!ped-up!!ped! !^![B,,F,=A,B,]3/2!ped-up!!ped! (2:1:2(A,,,/A,,/-) | %106
 (3(D,E,^E, (3F,A,C)!ped-up!!ped! (=E2 D3/2)!ped! (2:1:2x/!ped-up!x/ | %107
"^poco marc."!<(! (B,2 E,!<)!G,)!ped-up!!ped!!>(! (B,,3 C,/!>)!D,/)!ped-up!!ped! || %108
[K:A]"_tre corde"{/E,,} E,^^F,G,A,!ped-up!!ped! [=G,^A,]2 ([^F,B,]2!ped-up!!ped! | %109
 !arpeggio![A,,^D,=C]7/4)!ped-up!!ped! x/8x/8 !arpeggio!!^![G,,=D,B,]2!ped! !^![F,,B,,F,]2 !^![E,,E,]2!ped-up! | %110
!ped! (3(!>![D,,A,,D,]^E,F, (3A,)[K:treble].D.F!ped-up!!ped!!ped-up! (!>!A2 G) z!ped-up!!ped! | %111
[K:bass] (3(E,"^dolce"F,G, (3A,).C!ped-up!(E-!ped! E^D) z2!ped-up!!ped! | %112
 (3([D,,A,,=D,]^E,F, (3A,)[K:treble].D.F!ped! (!>!A2!ped-up! G) z!ped-up!!ped! | %113
[K:bass]"^espr.""_una corda." (E2"^sehr zart." A,"^(dolciss.)"C)!ped-up!!ped! (E,3 F,/G,/) | %114
!ped!!<(! ([C,E,A,][K:treble]CE!<)!A)!ped-up!!ped!!>(! (!>!A2 G)!>)! z!ped-up!!ped!!ped-up! | %115
[K:bass]"_tre corde" (3(!arpeggio!!>![C,A,]=G,C, (3A,,C,,) z!ped! (3(!arpeggio!!>![D,B,]A,D, (3A,,D,,) z!ped! | %116
 (3(!arpeggio![E,D]_B,=G, (3E,E,,)!ped-up! z!ped! (3(F,A,=C) (3(E^DE)!ped-up!!ped! || %117
[K:C] z2 [C_E^F]7/4 x/8x/8 !>!A2 G!ped-up!^F!ped! | %118
"_cresc." z2 [C_E^F]7/4 x/8x/8 !>!A2 G^F!ped-up!!ped! | %119
 z2"_cresc." ([C_E^F]2 [D=F]2 [^C=E]!ped-up![DF]) | %120
!ped!!<(! (!>![FA]4!ped! [EG]2!ped-up!!<)!!ped-up!!ped! [_E^F]2) || %121
[K:Eb]!ped! [B,,E,G,B,] .A,.G,.F, .E,.D,.C,.B,,!ped-up! | .A,,.B,,.C,.A,, .B,,.C,.[F,,F,].[G,,G,] | %123
 .[A,,A,].C,.F,.A, .G,.A,.B,.=B, | .[C,C].[B,,B,].[A,,A,].[=A,,=A,]"_legatissimo." (B,A,_A,G, | %125
 F,=E,_E,D, E,=E,F,G, | A,=A,[_B,_D][=B,=D]) .[CE].[_B,_D].[A,C].[G,B,] | C x x2 D x x2 | %128
 E3 .C .F,.G,/._A,/ .B,F,- | .[D,F,]/.[B,,B,]/.[C,C]/.[D,D]/ E>B, .=A,/ x3/2 C.^F,/.G,/ | %130
 .E,.=E,/.=F,/ .=A,.B, .[C,C]/.[=A,,A,]/.[=B,,=B,]/.[C,C]/ D.B,/.D/ | F.E/.D/ ._D.C/.=D/ | %132
 .G,/._E,/.=F,/.^F,/ .G,/.=F,/.G,/.=A,/ | %133
[K:treble] .B,/.=A,/.B,/.C/ .D/.C/.D/.E/ (!>!B=A/G/)!ped! !arpeggio![F,CEA] z | %134
[K:bass] (D2 _D2) (C B,3-) | B,(=A, G,2-) G,3 =F, | %136
!ped! z3/2!<(! (C/!<)! =E>)!<(!(C!ped!!ped-up!!<)! E>)!<(!(_D!<)! E>)D!ped-up!!ped! | %137
!f!!>(! (3(_A,,F,_C-!>)![K:treble] (3_C=C_D!ped-up! [=DF]2!p!"^ritard." _c) z!ped! | %138
[K:bass] .=G,/.F,/.D,/.E,/ .C.B, .A,/.G,/.=E,/.F,/ .D.C | %139
"_sempre stacc." ._C/.B,/.F,/.G,/ .A,.F, .G,.=A,.B,.C | %140
[K:treble] .D/.C/.=A,/.B,/ .G.F .E/.D/.=B,/.C/ .=A.G | %141
 ._G/.F/.C/.D/ .E.[C=G] .[DF].[_E_Gc].[=E=GB].[F_A] | %142
[K:treble] !>!B,2- .B,/.G,/.A,/.B,/ !tenuto!C2- C/.A,/.B,/.C/ | %143
 E>.D .C/.B,/.C/.D/ .E/.D/.E/.F/ .G/.F/.G/[I:staff -1].=A/!8vb(!!8vb)! | %144
[I:staff +1][K:bass] F,2- F,/.D,/.E,/.F,/ G,2- G,/.E,/.F,/.G,/ | %145
 !>!B,>.=A,!ped-up! .G,/.F,/.G,/.A,/ !>!C>.=B, .A,/.G,/.A,/.B,/!ped! | %146
 !>!D>.C .B,/.=A,/.B,/.C/ !>!E>.D .C/.=B,/.C/.D/ | %147
[K:treble] !>![E_G]>C .[EB]/.=A/.E/.F/ !>![EG]>C .[EB]/.A/.G/.C/ | %148
 !>![F_A]>E .D/.C/.D/.E/ !>![FA]>E .D/.E/.F/.=G/ | %149
!ped! A>!ped-up!F!ped-up!!ped! A>F!ped-up!!ped! A>F!ped-up!!ped! A>F | %150
!ped! !>!c/=B/F/A/-!ped-up!!ped! !>!c/B/F/A/-!ped-up!!ped! !>!c/B/F/A/-!ped-up!!ped! [Ac] z!ped-up!!8vb(!!ped!!ped-up!!8vb)! || %151
[K:C][K:bass] !^!C4 !^!G,3 !^!G, | %152
"_ten."!ped! !^!G,4- G,!ped-up!!ped!!>!E,!ped-up!!ped!!>!F,!>!G,!ped-up!!ped!!ped-up! | %153
 .A,2 .B,2!ped-up!!ped! .[A,C]2!ped-up!!ped! .[B,D]2!ped-up!!ped! | %154
 .E2!ped-up!!ped! !>!F2- F.E!ped-up!.D.C!ped! | %155
 !>!D2 !>!E2[K:treble]!ped-up!!ped! !>!F2 !>!G2!ped-up!!ped! | ^G2 !^!A2- A.=G.F.E | %157
 .D.C.B,.A,[K:bass]!>(! .G,.F,.E,!>)!.D, | %158
"^lagero""_marc."!ped! [C,,C,]4"^ten." [G,,,G,,]3!ped-up! (3(G,,,/G,,/G,,,/) | %159
!ped! G,,.C,.E,.G,!ped-up! x3 x3/4 x/4 | %160
!ped!!<(!{/A,,,} .A,,.C,!ped-up!!ped!.E,.G,!ped-up!!ped! .A,.B,!ped-up!!ped! (C!<)!E/D/) | %161
!ped!!>(! CB,/C/!>)!!ped-up!!ped! D/C/B,/A,/!ped-up!!ped! (A,/G,/) x!ped-up!!ped! x2!ped-up! | %162
!mf!!ped! [D,,D,]4!ped! [A,,,A,,]3!ped-up!!ped! [B,,,B,,]!ped-up! | %163
!mf!!ped! [C,,C,]4-!ped-up!!ped! [C,,C,][B,,,B,,]!ped-up!!ped![C,,C,][D,,D,] | %164
!mf!!ped! [E,,E,][D,,D,]!ped-up!!ped![E,,E,][F,,F,]!ped-up!!ped! !>![G,,G,]2!ped-up!!ped! [F,,F,][E,,E,]!ped-up! | %165
!>(!!ped! (D,,/A,,/D,/^C,/ E,/D,/G,/!>)!F,/) A,!mf! z z x!ped-up! | %166
!mf!!ped! !>![F,,F,]4!ped-up! [C,,C,]3 !>![C,,C,] | %167
!ped! [C,,C,][A,,,A,,]!ped-up!!ped![B,,,B,,][C,,C,]!ped-up!!ped! [D,,-D,]4!ped-up! | %168
!ped! D,,[B,,,B,,]!ped-up!!ped![C,,C,][D,,D,]!ped-up!!ped! [E,,-E,]4!ped-up! | %169
!ped! E,,[C,,C,]!ped-up!!ped![D,,D,][E,,E,]!ped-up!!ped! [^F,,^F,][D,,D,]!ped-up!!ped![E,,E,]!ped-up![F,,F,]!ped!!ped-up! | %170
!ped! z!ped-up! !arpeggio!.[D,B,]!ped-up!!ped! z !arpeggio!.[D,C]!ped-up!!ped! z .[^F,^D]!ped-up!!ped! z .[CE] | %171
!ped! [D,A,C]2!ped-up!!ped! !>![=E,G,=E]3 [D,D][C,C][B,,B,]!ped-up! | %172
"^quasi trillo" !///-![A,,B,,]2 [A,B,]2 !///-![A,,B,,]2 [A,B,]2 | %173
!ped! [G,,G,] [G,B,DFG][G,B,DFG][G,B,DFG] [G,B,DFG]!ped-up! z!ped! !arpeggio!.[G,,D,F,B,] z | %174
"^sehr gehalten aber nicht gebunden"!ped! !>![G,,C,E,G,-]4!ped-up!"^(ben tenuto ma non legato)" [G,,G,][E,,E,][F,,F,][G,,G,] | %175
!ped! [A,,A,-]4!ped-up! [A,,A,][D,,D,][F,,F,][A,,A,] | %176
 !>![=C,D,F,=C]3 [B,,B,] [A,,A,][G,,G,][A,,C,A,][B,,D,B,] | %177
 [C,G,C][B,,B,][C,C][D,D] !>![E,G,CE]3 z | %178
!ped! [G,,-C,E,G,-]4 [G,,G,][E,,E,]!ped-up![F,,F,][G,,G,] | %179
!ped! [A,,-C,A,-]4!ped-up! [A,,A,]!ped![D,,D,][F,,F,][A,,A,]!ped-up! | %180
 !>![C,D,C]3 [B,,B,] [A,,A,][G,,G,][A,,A,][B,,B,] | %181
 [C,C][B,,B,][C,C][D,D] [E,E][B,,B,][C,C][A,,A,] | %182
 .[C,E,G,]/.F,/.E,/.D,/ .E,/.D,/.C,/.B,,/ C, x x2 | A,/E,/F,/G,/ A,2 x4 | D,4!ped! x4!ped-up! | %185
 F,4!ped! x4!ped-up! | F,4!ped! x4!ped-up! |!ff! !>!^G,A,B,C!ped! x4!ped-up! | %188
 .G,"_stacc.".=F,.[E,E].[D,D] .[C,C].[B,,B,].[A,,A,].[G,,G,] | %189
 .[F,,F,].[E,,E,]!ped!.[D,,D,].[C,,C,]!ped-up!!ped! .[E,,E,].[D,,D,]!ped-up!.[C,,C,].[B,,,B,,] | %190
 .[C,,C,].[G,,G,].[F,,F,].[E,,E,] .[D,,D,].[C,,C,].[B,,,B,,].[A,,,A,,] | %191
 .[G,,,G,,].[F,,,F,,]!ped!.[E,,,E,,].[D,,,D,,]!ped-up!!ped! .[E,,,E,,].[G,,,G,,]!ped-up!.[A,,,A,,].[B,,,B,,] | %192
!ped! .[C,,C,]!ped-up!.[D,,D,]!ped!.[E,,E,]!ped-up!.[C,,C,]!ped! .[B,,,B,,]!ped-up!.[A,,,A,,]!ped!.[G,,,G,,].[F,,,F,,]!ped-up! | %193
!ped! .[F,,,F,,]!ped-up!.[F,,F,]!ped!.[E,,E,]!ped-up!.[D,,D,] | %194
!ped! [C,,C,]!ped-up![A,,,A,,]!ped![F,,,F,,]D,!ped-up! | %195
!ped! x !>!G,3!ped-up!!ped! x !>!A,3!ped-up! |!ped! x !>!B,3!ped-up!!ped! x !>!D3!ped-up! | %197
!ped!"_pesante e stacc." .[G,,G,]/.F,/.E,/.D,/!ped-up!!ped! .[C,C].[B,,B,]!ped-up!!ped! .[A,,A,]/.G,/.F,/.E,/!ped-up!!ped! .[D,D].[B,,B,]!ped-up! | %198
!ped! .[G,,G,]/.F,/.E,/.D,/!ped-up!!ped! .F,/.E,/.D,/.C,/!ped-up!!ped! .G,/.F,/.E,/.D,/!ped-up!!ped! .A,/.G,/.F,/.E,/!ped-up! | %199
!ped! .[C,C]/.B,/.A,/.G,/!ped-up!!ped! .[F,F].[E,E]!ped-up!!ped! .D/.C/.B,/.A,/!ped-up!!ped! .[B,,B,].[G,,G,]!ped-up! | %200
!ped! .[E,,E,]/.^F,/.G,/.A,/!ped-up!!ped! .[B,,B,]/.A,/.G,/.F,/!ped-up!!ped! .[E,,E,]/.^D,/.E,/.F,/!ped-up!!ped! .G,/.A,/.B,/.C/!ped-up! | %201
!ped! .[E,G,E]/.=D/.C/.B,/!ped-up!!ped! .[A,,A,].[G,,G,]!ped-up!!ped! .[C,C]/.B,/.A,/.G,/!ped-up!!ped! .[^F,,^F,].[E,,E,]!ped-up! | %202
!ped! .[D,,D,]/.C,/.B,,/.A,,/!ped-up!!ped! .G,.=F,!ped-up!!ped! .E,/.D,/.C,/.B,,/!ped-up!!ped! .A,.G,/.F,/!ped-up! | %203
!ped! .E,/.D,/.C,/.B,,/!ped-up!!ped! .D,/.C,/.B,,/.A,,/!ped-up!!ped! .C,/._B,,/.A,,/.G,,/!ped-up!!ped! .B,,/.A,,/.G,,/.F,,/!ped-up! | %204
!ped! (3[A,,,A,,][^C,,^C,]"_martellato"[E,,E,] (3[G,,G,][A,,A,]!ped-up![G,,G,] (3[F,,F,][G,,G,][F,,F,] (3[E,,E,][F,,F,][E,,E,] | %205
 (3[D,,D,][^C,,^C,][D,,D,] (3[E,,E,][F,,F,][E,,E,] (3[F,,F,][E,,E,][F,,F,] (3[^F,,^F,][G,,G,][F,,F,] | %206
 (3[G,,G,][^F,,^F,][G,,G,] (3[^G,,^G,][A,,A,][G,,G,] (3[A,,A,][G,,G,][A,,A,]!ped! (3[=F,,=F,][=E,,=E,]!ped-up![F,,F,] | %207
 (3[E,,E,][F,,F,][E,,E,] (3[A,,A,][^G,,^G,][A,,A,] (3[D,,D,][^C,,^C,][D,,D,] (3[E,,E,][F,,F,][D,,D,] | %208
!ped! [G,,G,] G,,,/4G,,/4G,,,/4G,,/4G,,,/4G,,/4G,,,/4G,,/4G,,,/4G,,/4G,,,/4G,,/4!ped!!ped-up! G,,,!ff! !>!A,2 .F,/!ped-up!.D,/!ped! | %209
 (!arpeggio!!^![G,,D,F,C]8!ped-up! |!ped! !>![D,F,B,]4!ped-up!!ped! !>![D,F,A,]4!ped!!ped-up! | %211
 !arpeggio![G,,D,F,B,]2) !>![G,DF]2 !>![G,DF]2 !>![G,,D,F,G,]2 | %212
!ped! !^![C,,E,,G,,C,]4!ped-up!!ped! [C,E,G,C]3 [C,,E,,G,,C,]!ped-up! | %213
 [C,,E,,G,,C,]4 [A,,C,E,A,]4 | %214
 !tenuto![G,,A,,^C,G,]2 !tenuto![F,,D,F,]2 !tenuto![E,,G,,E,]2 !tenuto![D,,G,,D,]2 | %215
 [C,,C,]2!ped! !>![C,F,A,C]4!ped-up! .[A,,C,F,A,].[F,,F,] | %216
 [C,,C,]2!ped! !>![A,,C,F,A,]4 .[F,,A,,C,F,].[C,,C,]!ped-up! | %217
 [A,,,A,,]2!ped! !>![F,,A,,C,F,]4 .[C,,F,,A,,C,].[A,,,A,,]!ped-up! | %218
 .[F,,,F,,].C,.F,.C .[F,A,CF].[C,C].[A,,A,].[F,,F,] | %219
!ped! [C,,E,,G,,C,]3 [E,,G,,C,E,]/[E,,G,,C,E,]/!ped-up!!ped! [E,,G,,C,E,]3 [G,,C,E,G,]/[G,,C,E,G,]/!ped-up! | %220
!ped! [G,,C,E,G,]3 [C,,E,,G,,C,]/[C,,E,,G,,C,]/!ped-up!!ped! [C,,E,,G,,C,]3 [E,,G,,C,E,]/[E,,G,,C,E,]/!ped-up! | %221
!ped! [E,,G,,C,E,]3 [G,,C,E,G,]/[G,,C,E,G,]/!ped-up!!ped! [G,,C,E,G,]3 [C,E,G,C]/[C,E,G,C]/!ped-up! | %222
!ped! [C,E,G,C]3 [C,,E,,G,,C,]/[C,,E,,G,,C,]/!ped-up!!ped! [C,,E,,G,,C,]7/4!ped-up!!ped! x/8x/8 !arpeggio![C,,G,,E,]2!ped-up! | %223
!ped! .[C,E,G,]2 z2!ped-up!!ped! .[E,G,CE]2 z2!ped-up! | .[C,,G,,C,]2 z2 z4 |] %225
V:3
 x8 | x8 | x8 | x2 [A,C] x x4 | x8 | x8 | x8 | G,, x ED (CB,).C.D | G,, x DC (B,A,).B,.C | x8 | %10
 x8 | x8 | x8 | x8 | x8 | x8 | x8 | x8 | x8 | x8 | x8 | x8 | x8 | x8 | x8 | x8 |[K:treble] x8 | %27
 x6 x7/4 x/4 |[K:bass] x6 x7/4 x/4 | !arpeggio!G,,8 | x8 | x8 | x8 | x4 !arpeggio!x/ x3/2 x2 | %34
 x4 !arpeggio!x/ x3/2 x x3/4 x/4 |{/G,,} x8 | x8 | x8 | x8 | x8 | x8 | x8 | x8 | x8 | x8 | x8 | %46
 x8 | x8 | x8 | x8 | x8 | x8 | x8 | x8 | x8 | (^F,G,) (E,F,) x4 | x8 | x8 | x8 | x6 x7/4 x/8x/8 | %60
 x2 x7/4 (3x/8x/8x/8 x2 x7/4 (3x/8x/8x/8 | x8 | x8 | x6 x7/4 x/8x/8 | x8 | x6 x3/2 (3x/4x/4x/4 | %66
 x8 | x6 x7/4 x/8x/8 | x8 | x8 | x8 | x8 | x8 | x8 | x8 | x8 | x8 | x8 | x8 | x8 | x8 | x8 | x8 | %83
 x8 | x6 x7/4 x/8x/8 | x8 | x8 | x8 | x8 | x8 | x8 | x{/_B,,,} x/ x/ x2 x2 x7/4 x/4 | x8 | x8 | %94
 x8 | x8 ||[K:E] x8 | x8 | x8 | x8 | x8 | x8 | x8 |[K:treble] x8 |[K:bass] x8 | x8 | x8 | %107
 x6 x7/4 x/4 ||[K:A] x6 x7/4 x/8x/8 | x8 | x8/3[K:treble] x16/3 |[K:bass] x8 | %112
 x8/3[K:treble] x16/3 |[K:bass] x8 | x[K:treble] x7 |[K:bass] x8 | x6 x3/2 x/4x/4 || %117
[K:C]({G,,=D,)} x6 x3/2 x/ |{/G,,} x6 x3/2 x/ |{/G,,} x6 x2 | x8 ||[K:Eb] x8 | x8 | x8 | x8 | %125
 x2 A,2- A, x x2 | x8 | x8 | x8 | x8 | x8 | x4 | _E x x2 |[K:treble] x8 |[K:bass] x8 | x8 | x8 | %137
 x2[K:treble] x6 |[K:bass] x8 | x8 |[K:treble] x8 | x8 |[K:treble] x8 | x31/4!8vb(! x/4!8vb)! | %144
[K:bass] x8 | E/ x3/2 x2 x4 | x8 |[K:treble] x8 | x8 | x8 | x6 x7/4!8vb(! (3x/8x/8x/8!8vb)! || %151
[K:C][K:bass] x8 | [A,,C,]4 x4 | x8 |{/G,,} x6 x7/4 x/8x/8 | x6[K:treble] x7/4 (3x/8x/8x/8 | x8 | %157
 x4[K:bass] x4 | x8 | x8 | x8 | x8 | x8 | x8 | x8 | x8 | x8 | x8 | %168
 .D, z z2[I:staff -1] .D[I:staff +1].[^G,CE].[G,B,D] .E,/.E,/ | .E, x3 x4 | %170
 x7/8 x/8 x x7/8 x/8 x x4 | x8 | x8 | x8 | x8 | x8 | x8 | x8 | x8 | x8 | x8 | x8 | x8 | x8 | x8 | %185
 x8 | x8 | x8 | x8 | x8 | x8 | x8 | x8 | x4 | x4 | x8 | x8 | x8 | x8 | x8 | x8 | x8 | x8 | x8 | %204
 x8 | x8 | x8 | x8 | x8 | x8 | x6 x7/4 (3x/8x/8x/8 | x8 | x8 | x8 | x8 | x8 | x8 | x8 | x8 | x8 | %220
 x8 | x8 | x8 | x8 | x8 |] %225
V:4
 x8 | x8 | x8 | x8 | x8 | x6 [EG]2 | [^Fc]2 [Gc]2 x4 | F4 A2 [GB]2 | E4 G2 [FA]2 | DB,ED CA,DC | %10
 B,D[I:staff +1]CA, DB,EC |[I:staff -1] =FE[I:staff +1]D^C D[I:staff -1]EFG | %12
 AGF[I:staff +1]^C DG F/E/D/=C/ | x8 |[I:staff -1] D2[I:staff +1] B,A,[I:staff -1] z2 AC | %15
 B,2[I:staff +1] ED[I:staff -1] (!>!c2 B)D | C x x3/2 (3x/4x/4x/4 x4 | Gde^f Bg^fe | d2 c'b a2 e2 | %19
 A2 ag ^f2 c2 | ec B2 ced^d | ^f2 ba ^g2 d2 | f2 e2 [_Be]2 A=B | G2 ^F2 G2 e_e | %24
 d2 =e_e [dg]^f[=f^g][=ea] | !>!=g4 !>!^f4 | x8 | d4 c3 x | x2 (G2 ^G3 A) | (D3 F _E2 D) z | %30
 (d4- d3 e | AB c2 B) z G2 | [C^F]4 [D=F]2 E_E | D2 =F2 z CG^F | [=DA]2 =F2 z C2 !>!c- | %35
 [D=F]4 ^F2 =F(=E/_E/ | [D=F]2) z ^A =B2 z ([c_e] | [Bd]2) x2 x4 | x8 | x6 .G/.F/.E/.D/ | x8 | x8 | %42
 x8 | x8 | x8 | x8 | x8 | x8 | x8 | x8 | x8 | x8 | x8 | [Ac^f]2 [B=d=f]2 [ce]2 [gb]2 | %54
 [^gc']2 [ab]2 [_be']2 [^fd']!stemless!=g | x8 | [ea]2 [Ace]2 [Bd]2 [Ac]2 | x8 | x8 | x8 | x8 | %61
 x8 | !>!g4- c4 | [^cf]3 e- ecde | x4 f4 | g4 x4 | g2 d4 c2 | [^Gc]3 B- BGAB | x8 | %69
 x2 !>![Bd]2 x4 | x6 A2 | A3 ^G =G4 | ^A4 B4 | !>!d3 ^c =c4 | !>!e3 ^d =d4 | x4 ^f4 | x8 | %77
 x4 [g_b]4 | x4 [ab]2 x2 |!8va(! x8 | !>!f'3 e' e'^c'd'=c' | x4 f'4 | x4 ^c'4 | x4 ^g4!8va)! | %84
 e4 x4 | (=dcB[G_B]) !arpeggio![FAd] x x2 | !>![EG]2 !>![^D^F]2 !>![=D=F]2 [^CE][DF] | %87
 ([FA]4 [EG]2 [DF]2) | [G,CE]2!<(! (_E2 D2!<)! ^CD) | F8 | [CEG]2!<(! (_G2 F2 G=G)!<)! | %91
 [F_A]4 [_E_G]2 [DF]2 | [_B,_E=G]2 _G2!<(! F2 =EF!<)! | [_A-c]3 A- A4 | ([_B,_EB]2 A2 _A2 =A_B) | %95
 !arpeggio![=E^A]8 ||[K:E] B,3 ^A, =A,4 | B,2 x2 x4 | x2 C=C x4 | ^B,C =B,7/4 x/4 !arpeggio!C3 x | %100
 x8 | E2 D z ^B,2 C2 | E2 D3/2 x/4x/4 !arpeggio![B,=E]3 x3/4 x/8x/8 | %103
{/A} !arpeggio!e2 d3/2 x/4x/4 !arpeggio![B=e]3 z | [CE]2 [=CD]2 [=D^E]2 [^CF]2 | %105
 [=G^A]2 [F=A]2 [=G^A]2 [F=A]2 | [FAc]3 x x2 x7/4 x/4 | %107
 (!arpeggio![EG]4 D7/4) x/8x/8 [=A,D]7/4 x/4 ||[K:A]{/=B,} x2 F=F E2 D z | %109
 =c2 B7/4 x/8x/8 !arpeggio![A^d]2 [B=d]2 | [Fdf]3 x x2 x7/4 x/8x/8 | !arpeggio!a4!<(! (c3 f)!<)! | %112
 !arpeggio![F=df]2!>(! x2 x4!>)! | ([A^d] e3) !arpeggio!x/ x/ x (3=def | x8 | [=GA]4 [Fd]4 | %116
 ([=G-d]2 c2) d2 =c2 ||[K:C] !>![df]2 x2 x4 | !>![df]2 x2 x4 | [d=f]2 x2 x4 | %120
 x4 !>![eg]2 !>![_e^f]2 ||[K:Eb] x[I:staff +1] .B,.E.D .C[I:staff -1].F.E.D | %122
 .C.F.E.A .[Ge].A.d.B | .c.E.A.D .B.A.G.A | .[=Ae].[Be] [ce]2 (_A/=E/F-) C2 | _D2 =DF A3 =B | %126
 c2 A2- AF/G/ AE | A2 c>E B2 ed/F/ | c2- c/.=A/.B/.c/ .B/.f/.e .d/.b/.=a/.g/ | %129
 f .e'/.d'/ c' z x c'/b/ =a z | .=A/.e/.d .e/.g/.f/.^f/ [g=a] d'/c'/ =b z | a g2 ._e/.c/ | %132
 .B.[ce] .[Bd] .g/._g/ | [df].=g/._g/ .[fb]/.=a/.[_a=b]/.[=gc']/ e2 x2 | x8 | %135
 G=c B2- !arpeggio![B=e][=B=f]d_d- | d [c=e]2 [ce]2 [_de]3 |{/_c} !arpeggio![f_a]4- [fa] z z2 | %138
({Be)} x2 (!>!e2 c/) x3/2 !>!f2- | x8 | !>!f2- (!>!B2 G/) x3/2 !>!c2- | x8 | %142
[I:staff +1] .G/.F/.D/[I:staff -1].E/ x2 x2 A/ x3/2 | x3 .f .e.=A x2 | .B/ x3/2 .d x x2 .e x | %145
 .c/ x3/2 x2 .[=Ae]/ x3/2 x7/4 x/8x/8 | !arpeggio!.[Ge]/ x3/2 x2 .[c_g]/ x3/2 x2 | x8 | x8 | %149
 [dc']/=b/"_cresc."f/a/ d/b/f/a/ d/b/f/a/ d/b/f/a/ | !stemless!d d2 d2 ([da]f) z || %151
[K:C] !arpeggio![^fc'd'] x (6:4:6g'/c'/a/^f'/c'/a/ (6:4:6e'/c'/^f/_e'/c'/f/ (6:4:6d'/a/f/c'/a/f/ | %152
 (6:4:6b/^f/c/a/f/c/ (6:4:6c'/f/d/b/f/d/ (6:4:6d'/a/f/c'/a/f/- f z | %153
 (6:4:6c'/=f/d/b/f/d/ (6:4:6e'/a/f/d'/a/f/ (6:4:6c'/f/d/b/f/d/ (6:4:6a/f/B/^g/f/B/ | %154
 (6:4:6b/e/c/a/e/c/ (6:4:6d'/a/d/c'/a/d/ (6:4:6b/f/c/^g/f/c/- (3[cf][Bb][cc'] | %155
 (6:4:6c'/f/d/b/f/d/ (6:4:6f/d/B/=g/d/B/ (6:4:6^g/d/B/a/d/B/ (6:4:6e/d/B/f/d/B/ | %156
 (6:4:6c'/f/d/b/f/d/ (6:4:6f/d/B/g/d/B/ (6:4:6^g/d/B/a/d/B/ (6:4:6d/B/=G/e/B/G/ | %157
 (6:4:6f/d/B/^f/d/B/ (6:4:6g/d/B/^c/B/G/ (6:4:6e/B/G/d/B/G/- G(3.G/.G/.G/ | %158
 z[I:staff +1] .[E,G,C].[G,CE][I:staff -1].[EG] .[EG].[FA].[EG] z | %159
 [G,C-E]4"^cresc." .[G,C].[A,^C].[G,D-] x | EA x2 x4 | [^Gc]2 [FA]2 x =G2 x | %162
 z!pp![I:staff +1] .[F,A,].[A,D][I:staff -1].[A,DF] [DFA] x3 | %163
 z!pp![I:staff +1] .[C,E,G,].[E,G,C][I:staff -1].[G,CE] [CEG] x3 | _B/(^F/G/A/.B) x !>!E2 x2 | %165
 G4 F2 x .=C/.C/ | %166
 .[A,C][I:staff +1].[C,F,].[F,A,].[A,C][I:staff -1] z[I:staff +1] .[A,D].[A,C][I:staff -1] z | %167
 [FA]2!pp! .[F,A,]"^(Sempre più animato e poco a poco più forte)".[F,A,D] .[^F,A,D].[F,A,E][I:staff +1].[F,A,] .D,/.D,/ | %168
[I:staff -1] x4 ^G4 | x8 | x8 | ^F2 G x x2 =E x | c x ^F x cAGF | [=FB]2 z2 z2 !>!G2 | x8 | %175
 (F2 G2 A4) | x8 | [G=c]4 G/!ff!.B/.c/.d/ e/ x/ x | x4 c.G/.G/.G.G | %179
 !>!G2- G/[I:staff +1].E/.F/.G/ .[FA][I:staff -1] x d2 | f4 x4 | EDAF x4 | %182
 x4 z .[ce]/.[ce]/ .[ce].[ce] | [de]2 ^c2 A3 =c/B/ | !>!A2 x2 d2 F>F | !>!F2 x2 f2 A>A | %186
 !>!A2 x2 x4 | d3 c x2[I:staff +1] !>![DF][I:staff -1]!>!^F | %188
 [CE]2 (3c/(^F/G/.c) (3c/(^G/A/.[ce]) (3d/(^A/B/.[dg]) | %189
 (3e/(B/c/.[eg]) (3f/(B/c/.[fa]) (3e/(B/c/.[eg]) x2 | %190
 (3E/(B,/C/.[EG]) (3G/(^D/E/.[Gc]) (3[Ac]/(^D/E/.[Ace]) (3B/(^F/G/.[Bdg]) | %191
 (3e/(B/c/.[eg]) (3f/(B/c/.[fa]) (3e/(B/c/.[eg]) x2 | %192
 (3C/(B,/C/.E) (3E/(^D/E/.G) (3A/(^D/E/.A) (3B/(^F/G/.B) | (3c/(^G/A/.c) (3d/(^A/B/.e) | %194
 e/c/ x [fa]2 | x8 | x8 | x8 | x8 | x8 | x8 | x8 | x8 | x8 | x4 e^c x2 | [fa]2 [d^g]2 x2 [^da]2 | %206
 [eg]2 [=d=f]2 [_e^f]7/4 x/8x/8 x2 | x4 c2 A2 | [E=G]2 !>![^D^F]2 !>!=F2 [^CE][=DF] | [FA]4 [Ad]4 | %210
 [df]4 [fa]4 |!8va(! [fa]2 [ad']2 f'2 [d'f']2 | x4!8va)! x4 | x8 | x8 | x8 | x8 | x6 x7/4 x/8x/8 | %218
 x8 | x8 | x8 | x8 | x8 | x8 | x8 |] %225
V:5
 x8 | x8 | x8 | x8 | x8 | x8 | x8 | x8 | x7 x/ x/ |{/G,,} x7 (G,/G,,/) | x8 | %11
 G,, x x2 x3 (G,/G,,/) | x8 | x7 x3/4 x/4 |{/D,,} x4 x3 x3/4 x/4 |{/E,,} x4 x4 | [A,,C,]4 x4 | %17
 x6 E,^F, | [B,,D,B,][G,,G,][A,,A,][B,,B,] [C,C]4- | [C,C][E,,E,][^F,,^F,][G,,G,] [A,,A,]4 | %20
 [A,,A,]2 [G,,G,]2 ^F,,2 G,,2 | x4 B,,4- | B,,2 x2 x4 | x8 | x8 | x6 x7/4 (x/4 | %26
[K:treble] !stemless!G,4) [CE]4 | F4 _E2 D2 |[K:bass] G,8 | x4 (A,G, ^F,2) | G,8- | %31
 G,4- G, x3/4 x/4{/G,,} x2 | G,6 x2 | x4 G,4 | x4 G,3 A, | !stemless!G,4 A,2- A,/B,/C/A,/ | x8 | %37
 x3 x3/4 (3x/8x/8x/8 x4 | x8 | x8 | x8 | x4 E, x x2 | x8 | x8 | x8 | x6 !arpeggio!x/4 x7/4 | x8 | %47
 x8 | x8 | x6 x2 | x8 | x8 | x8 | x8 | x8 | x8 | x8 | D,8 | .[E,,G,,C,E,]2 x2 [A,C]4 | %59
 [G,A,^C]4 [F,A,]3 [E,A,] | x8 | x8 | x4 [A,C]4 | [G,A,^C]4 [F,A,]3 [E,A,] | %64
 !arpeggio![D,A,]7/2 (3x/4x/4x/4 !arpeggio![G,,D,F,]2 x2 | E,4 C,3 z | %66
 !arpeggio![B,,D,G,]2 z2 [E,G,]4 | [D,E,^G,]4 [C,E,]3 [B,,E,] | x8 | x6 x7/4 x/8x/8 | %70
 !arpeggio![^F,,=C,]4 [=F,,A,,=F,]4 | [E,,B,,D,E,]4 [A,,C,A,]4 | [D,,D,]4 [G,,B,,G,]4 | %73
 [E,,B,,E,]4 [A,,=C,A,]4 | [^F,,C,]4 [B,,D,B,]4 | !^!A,,4 !^!C,4 | !^!B,,4 !^!D,4 | !^!C,4 !^!E,4 | %78
 !^!D,7/2 x/ !^!F,4 | x8 | x8 | x6 (ED) | x6 (GF) | x8 | x8 | B,,C, [^C,E,]2 D,2 =C,2 | x8 | %87
 x4 G,,7/2 x/4 x/4 | A,,6 A,,7/4 (3x/8x/8x/8 | G,,2 x2 x2 =G,7/4 x/4 | A,,6 A,,2 | %91
 x3/4 x/4 x3- B,,4 | C,6 C,7/4 (3x/8x/8x/8 | _B,,2 x2 x2 _B,7/4 x/4 | C,6 C,2 | x8 || %96
[K:E] (G,,4 F,,4 | G,,2 F,,2 [A,,-F,]4 | A,,4) G,,4 | A,,2 G,,2 F,,4- | (F,,4 A,,4) | (F,,4 A,,4) | %102
 F,,2 x2 G,,2 x2 |[K:treble] F,2 x2 G,2 x2 |[K:bass] x8 | x8 | A,,4 [F,A,]4 | %107
({G,,E,)} x2 x2 F,,4 ||[K:A] (E,2 =D,2 C,2) B,,2 | x8 | x4[K:treble] [B,D]3 x | %111
[K:bass] C,3 z ([F,A,]2 E,^D,) | x4[K:treble] [B,D]3 x/ x/4x/4 |[K:bass]({C,A,)} x4 B,,4 | %114
 x4[K:treble] [B,D]3 x3/4 x/4 |[K:bass] x2 x7/4 x/4 x2 x7/4 x/4 | x2 x7/4 x/4{/F,,} x2 E2 || %117
[K:C] !^!G,8 | !^!G,8 | G,6 !>!G,2- | G,2 (!>!G,4 A,2) ||[K:Eb] x8 | x8 | x4 .G,.F,.E,.D, | %124
 x3 x3/4 x/4{/B,,} x x x2 | x8 | x8 | !tenuto!F,2- .F,/.D,/.E,/.F,/ !tenuto!G,2- .G,/.E,/.F,/.G,/ | %128
 .=A,.G,.F,.E, .D,.C,.B,,.C, | x2 !tenuto!E,2- .E,/.[G,,G,]/.[=A,,=A,]/.[B,,B,]/ !tenuto!C,2- | %130
 .C,.B,,.=A,,.B,, x2 D,2- | D,E, =E,F,/^F,/ | x4 |[K:treble] x4 F7/4 (3x/8x/8x/8 x2 | %134
[K:bass] (G,D,=E,F, ^F,G,=F,=E,) | F,^F,G,=E, ^C,D,=E,=F, | !^!_G,4 !^!=G,4 | %137
 A,,2[K:treble] A,2- A,2 z2 |[K:bass] x8 | x8 |[K:treble] x8 | x8 |[K:treble] x8 | %143
 x6 x7/4!8vb(! x/4!8vb)! |[K:bass]{/F,,} x2 x2 x4 | x8 | x8 |[K:treble] x8 | x8 | x8 | %150
 A x A x A x x2!8vb(!!8vb)! || %151
[K:C][K:bass] !arpeggio![G,,D,^F,] G,,,/4G,,/4G,,,/4G,,/4G,,,/4G,,/4G,,,/4G,,/4G,,,/4G,,/4G,,,/4G,,/4 x4 | %152
 G,,8 | !arpeggio![G,,D,F,]4 !>!G,4 | [G,A,C]8 | !arpeggio![G,,F,]2 x2[K:treble] [G,D]4 | %156
 !arpeggio![G,-DF]6 G,2 | G,4[K:bass] G,4 | x8 | G,,4- G,,[E,,,E,,][F,,,F,,][G,,,G,,] | %160
 !>!A,,2 !>!B,,2 !>![C,E,]2 !>![D,F,]2 | E,2 !>!F,2- F,[E,,E,][D,,D,][C,,C,] | x8 | x8 | x8 | %165
 D,,4- D,,[=C,,=C,][D,,D,][E,,E,] | x8 | x8 | x8 | x8 | !>!G,,2 !>!A,,2 !>!B,,2 !>!C,2 | x8 | x8 | %173
 x4 x7/4 (3x/8x/8x/8 x2 | z2 G,,,/4G,,/4G,,,/4G,,/4G,,,/4G,,/4G,,,/4G,,/4- G,,, x x2 | %175
 z2 A,,/4A,,,/4A,,/4A,,,/4A,,/4A,,,/4A,,/4A,,,/4 A,, x x2 | x8 | x8 | x8 | x8 | x8 | x8 | %182
 (G,,4- G,,[E,,E,][F,,F,][G,,G,]) | ([A,,A,]4- [A,,A,][D,,D,][F,,F,][A,,A,]) | %184
 (!>![C,C]3 [B,,B,] [A,,A,][=G,,=G,][A,,A,][B,,B,]) | %185
 (!>![D,D]3 [=C,=C] [B,,B,][A,,A,][B,,B,][C,C]) | (!>![E,E]3 [D,D] [C,C][B,,B,][C,C][D,D]) | %187
 [F,F]3 [E,E] !>![D,D]!>![E,E]!>!F,!>!^F, | x8 | x8 | x8 | x8 | x8 | x4 | x4 | %195
 (3(!>!G,,,/G,,/)(G,,/x).F,.D, (3(!>!A,,,/A,,/)(A,,/x).^F,.D, | %196
 (3(!>!B,,,/B,,/)(B,,/x).G,.=F, (3(!>!D,,/D,/)(D,/x).B,.G, | x8 | x2 !>!C, x !>!E, x x2 | %199
 x2 x2 !>!A, x x2 | x8 | x8 | x2 !>!G,, x !>!A,, x !arpeggio!!>!F,, x | %203
 !>!E,, x !>!D,, x !>!C,, x !>!_B,,, x | x8 | x8 | x8 | x8 | x6 x7/4 (3x/8x/8x/8 | %209
 z G,,/4G,,,/4G,,/4G,,,/4G,,/4G,,,/4G,,/4G,,,/4G,,/4G,,,/4G,,/4G,,,/4 !>![G,,,G,,]3 !>!G,, | %210
 z2 .[G,,,G,,]2 z2 .[G,,,G,,]2 | x8 | x8 | x8 | x8 | x8 | x8 | x8 | x8 | x8 | x8 | x8 | x8 | x8 | %224
 x8 |] %225
V:6
 x8 | x8 | x8 | x8 | x8 | x8 | x8 | x8 | x8 | x8 | x8 | x8 | x8 | x8 | F4 ^F4 | !arpeggio!G4 ^G4 | %16
 A4 x4 | x8 | x8 | x8 | x8 | x8 | x8 | x8 | x8 | %25
 (6:4:6x/x/x/x/x/x/ (6:4:6x/x/x/x/x/x/ (6:4:6x/x/x/x/x/x/ (5:4:5x/x/!trill)!x/ g/a/ | x8 | %27
 !arpeggio!x/ x3/2 x2 x4 | x8 | !arpeggio!x/ x3/2 x2 x4 | x8 | x8 | !arpeggio!x/ x3/2 x2 x4 | x8 | %34
 x8 | x8 | x8 | x8 | x8 | x8 | x8 | x8 | x8 | x8 | x8 | x4 x d'/4c'/4b/4c'/4 x2 | [df]3 x ^f4 | %47
 [d=f]2 x2 [df]2 x2 | x8 | x8 | x8 | x8 | x8 | x8 | x8 | x4 b2 g2 | x8 | x8 | x8 | x8 | x8 | %61
 x4 g4 | x8 | x4 A2 x2 | x8 | x8 | x4 G4 | x4 E2 x2 | x8 | x8 | x8 | x8 | x8 | x8 | x8 | x8 | x8 | %77
 x8 | x8 |!8va(! x8 | x8 | x8 | x8 | x8!8va)! | x8 | x2 x7/4 (3x/8x/8x/8 x4 | x8 | %87
 (6:4:6x/x/x/x/x/x/(6:4:6x/x/x/x/x/x/(6:4:6x/x/x/x/x/x/(5:4:5x/x/x/ !trill)!A/B/ | x8 | A3 z x4 | %90
 G,2 _E2 D2 E2 | x8 | x8 | x8 | G2 ^F2 =F2 ^F7/4 (3x/8x/8x/8 | x8 ||[K:E] x8 | x8 | x8 | x8 | x8 | %101
 x8 | x8 | x8 | x8 | x8 | x8 | x8 ||[K:A] x8 | x8 | x8 | x6 x7/4 (3x/8x/8x/8 | x8 | x8 | x8 | x8 | %116
 x8 ||[K:C] x8 | x8 | x8 | x8 ||[K:Eb] x8 | x8 | x8 | x8 | x8 | x8 | x8 | x8 | x8 | x6 a2- | x4 | %132
 x4 | x3 x3/4 !stemless!d'/4{/d'} x2 x2 | _b x x2 x2 G2 | x3 x3/4 x/8x/8 x4 | x6 x7/4 (3x/8x/8x/8 | %137
 x6 x7/4 x/8x/8 | x8 | x8 | x8 | x8 | x8 | x8 | x8 | x8 | x8 | x8 | x8 | x8 | %150
 x6 x7/4 (3x/8x/8x/8 ||[K:C] x8 | x8 | x8 | x8 | x8 | x8 | x8 | x8 | x8 | x8 | x8 | x8 | x8 | x8 | %165
 x8 | x8 | x8 | x8 | x6 x7/4 x/8x/8 | x8 | x8 | x8 | x8 | x8 | ^c4 d4 | x8 | x2 ed x4 | x8 | x8 | %180
 x8 | x8 | x8 | x8 | x8 | x8 | x8 | x3 x3/4 (3x/8x/8x/8 x4 | x8 | x8 | x8 | x8 | x8 | x4 | x4 | %195
 f4 ^f4 | [df]4 [fg]4 | x8 | x8 | x8 | x8 | x8 | x8 | x8 | x8 | x8 | x8 | x8 | x8 | x8 | x8 | %211
!8va(! x/4x/4x/4x/4(5:4:5x/4x/4x/4x/4x/4 x/4x/4x/4x/4(5:4:5x/4x/4x/4x/4x/4 (6:4:6x/4x/4x/4x/4x/4x/4(5:4:5x/4x/4x/4x/4x/4 (6:4:6x/4x/4x/4x/4x/4x/4(5:4:5x/4x/4x/4x/4x/4 | %212
 x4!8va)! x4 | x8 | x8 | x8 | x8 | x8 | x8 | x8 | x8 | x8 | x8 | x8 | x8 |] %225
V:7
 x8 | x8 | x8 | x8 | x8 | x8 | x8 | x8 | x8 | x8 | x8 | x8 | x8 | x8 | x7 x3/4 x/4 | x8 | %16
 !arpeggio!x/ x3/2 x2 x4 | x8 | x8 | x8 | x8 | x8 | x8 | x8 | x8 | x8 | x8 | x8 | x8 | x8 | x8 | %31
 x8 | x8 | x8 | x8 | x8 | x8 | x8 | x8 | x8 | x8 | x8 | x8 | x8 | x8 | x8 | x8 | x8 | x8 | x8 | %50
 x8 | x8 | x8 | x8 | x8 | x8 | x8 | x8 | x8 | x8 | x8 | x8 | x8 | x8 | x8 | x8 | x8 | x8 | x8 | %69
 x8 | x8 | x8 | x8 | x8 | x8 | x8 | x8 | x8 | x8 |!8va(! x8 | x8 | x8 | x8 | x8!8va)! | x8 | x8 | %86
 x8 | x8 | x8 | x8 | x8 | x8 | x8 | x8 | x8 | x8 ||[K:E] x8 | x8 | x8 | x8 | x8 | x8 | x8 | x8 | %104
 x8 | x8 | x8 | x8 ||[K:A] x8 | x8 | x8 | x8 | x8 | x8 | x8 | x8 | x8 ||[K:C] x8 | x8 | x8 | x8 || %121
[K:Eb] x8 | x8 | x8 | x8 | x8 | x8 | x8 | x8 | x8 | x8 | x4 | x4 | x8 | x8 | x8 | x8 | x8 | x8 | %139
 x8 | x8 | x8 | x8 | x8 | x8 | x8 | x8 | x8 | x8 | x8 | x8 ||[K:C] x8 | x8 | x8 | x8 | x8 | x8 | %157
 x8 | x8 | x8 | x8 | x8 | x8 | x8 | x8 | x8 | x8 | x8 | x8 | x8 | x8 | x8 | x8 | x8 | x8 | x8 | %176
 x8 | x8 | x8 | x8 | x8 | x8 | x8 | G4 x4 | x8 | x8 | x8 | x8 | x8 | x8 | x8 | x8 | x8 | x4 | x4 | %195
 x8 | x8 | x8 | x8 | x8 | x8 | x8 | x8 | x8 | x8 | x8 | x8 | x8 | x8 | x8 | x8 |!8va(! x8 | %212
 x4!8va)! x4 | x8 | x8 | x8 | x8 | x8 | x8 | x8 | x8 | x8 | x8 | x8 | x8 |] %225
V:8
 x8 | x8 | x8 | x8 | x8 | x8 | x8 | x8 | x8 | x8 | x8 | x8 | x8 | x8 | x8 | x8 | x8 | x8 | x8 | %19
 x8 | x8 | x8 | x8 | x8 | x8 | x8 |[K:treble]{/E} x6 x7/4 x/4 | x8 |[K:bass] x8 | x31/4 x/4 | x8 | %31
 x8 | x8 | x8 | x8 | x8 | x8 | x8 | x8 | x8 | x8 | x8 | x8 | x8 | x8 | x8 | x8 | x8 | x8 | x8 | %50
 x8 | x8 | x8 | x8 | x8 | x8 | x8 | x8 | x8 | x8 | x8 | x8 | x8 | x8 | x8 | x8 | x8 | x8 | x8 | %69
 x8 | x8 | x8 | x8 | x8 | x8 | x8 | x8 | x8 | x8 | x8 | x8 | x8 | x8 | x8 | x8 | x8 | x8 | x8 | %88
 x8 | x8 | x8 | x8 | x8 | x8 | x8 | x8 ||[K:E] x8 | x8 | x8 | x8 | x8 | x8 | x8 |[K:treble] x8 | %104
[K:bass] x8 | x8 | x8 | x8 ||[K:A] x8 | x8 | x8/3[K:treble] x16/3 |[K:bass] x8 | %112
 x8/3[K:treble] x16/3 |[K:bass] x8 | x[K:treble] x7 |[K:bass] x8 | x8 || %117
[K:C] x4 !arpeggio![B,=F]3 [A,_E] | x4 !arpeggio![B,=F]3 [A,_E] | x8 | x8 ||[K:Eb] x8 | x8 | x8 | %124
 x8 | x8 | x8 | x8 | x8 | x8 | x8 | x4 | x4 |[K:treble] x8 |[K:bass] x8 | x8 | x8 | %137
 x2[K:treble] x6 |[K:bass] x8 | x8 |[K:treble] x8 | x8 |[K:treble] x8 | x31/4!8vb(! x/4!8vb)! | %144
[K:bass] x8 | x8 | x8 |[K:treble] x8 | x8 | x8 | x31/4!8vb(! x/4!8vb)! ||[K:C][K:bass] x8 | %152
 x6 x7/4 (3x/8x/8x/8 | x6 x7/4 x/4 | x8 | x4[K:treble] x4 | x8 | x4[K:bass] x4 | x8 | x8 | x8 | %161
 x8 | x8 | x8 | x8 | x8 | x8 | x8 | x8 | x8 | x8 | x8 | x8 | x8 | x8 | x8 | x8 | x8 | x8 | x8 | %180
 x8 | x8 | x8 | x8 | x8 | x8 | x8 | x8 | x8 | x8 | x8 | x8 | x8 | x4 | x4 | x8 | x8 | x8 | x8 | %199
 x8 | x8 | x8 | x8 | x8 | x8 | x8 | x8 | x8 | x8 | x8 | x8 | x8 | x8 | x8 | x8 | x8 | x8 | x8 | %218
 x8 | x8 | x8 | x8 | x8 | x8 | x8 |] %225

